!!!OTL: DORT WO DIE SCHNEEBERG STOLZ
!!!ARE: Europa, Mitteleuropa, Oesterreich
!!!SCT: B0035
!!!YEM: Copyright 1995, estate of Helmut Schaffrath.
**kern
*ICvox
*Ivox
*M3/4
*k[]
*C:
{8c
8d
8c
=1
8c
8E
8G
8c
8d
8c
=2
8B
8d
8.F}
{16G
8.e
16d
=3
8c
8B
8.F
16c
8B
8A
=4
8G
8c
8E}
{8c
8d
8c
=5
8c
8E
8G
8c
8d
8c
=6
8B
8d
8.F}
{16G
8.e
16d
=7
8c
8B
8.F
16c
8B
8A
=8
8G
8c
8E
16r}
{16F#
8.G
16A
=9
8.B
16A
8G
8c
8.B
16A
=10
8.B
16A
8G}
{8D
8G
8B
=11
8.d
16c
8B
8e
8d
8c#
=12
8.d
16c
8B}
{8D
8G
8B
=13
8.d
16c
8B
8G
8B
8d
=14
8.f
16e
2d}
=15
{4e
4d
4c
=16
8B
8D
2F}
=17
{4c
4B
4A
=18
8G
8C
2E}
=19
{4E
4G
4c
=20
8e
8G
4.f}
{8e
=21
2e
4d
=22
2c
4r}
=23
{4e
4d
4c
=24
8B
8D
2F}
=25
{4c
4B
4A
=26
8G
8C
2E}
=27
{4E
4G
4c
=28
8e
8G
4.f}
{8e
=29
2e
4d
=30
4.c}
==
!!!AGN: politisch, national, Vaterlands - Lied
!!!ONB: ESAC (Essen Associative Code) Database: BOEHME
!!!AMT: simple triple
!!!AIN: vox
!!!EED: Helmut Schaffrath
!!!EEV: 1.0
*-
